X: 1158
T: Isfahân Peşrev
C: Tanburî Cemil Bey
O: Turkey
F: http://compmusic.upf.edu/node/140
N: isfahan--pesrev--devrikebir----tanburi_cemil_bey
N: makam= isfahan
N: form= pesrev
N: usul= devrikebir = 28/4
M: 28/4
L: 1/16
K: C _2/4B   
Q: 1/4=78
%%MIDI tuningsystem comma53
A8 A4 g2f2  | e2f2 e2d2 e2d2 c2d2  | \
w:  1. HANE  |   | 
c4 B4 c2d2 c2B2  | c4 d4 B2c2 A2B2  | 
w:   |   | 
G8 ede2 d4  | d4 B2c2 B3e d2c2  | c2B4c2 B4 A4  | \
w:   |   |   | 
G4 A4 A4 f2e2  | 
w:   | 
d2e2 d2c2 e2d2 c2B2  | c4 d2e2 d4 c2B2  | \
w:   |   | 
A6c2 B3A G4  | g3f e2f2 e2f2 e2d2  | 
w:   |   | 
(3d2^c2=B2 c2d2 c2f4ed  | d6ef edd^c d2e2  | \
w:   |   | 
d4 e4 e6d2  | 
w:  TESLİM  | 
e2f2 e2f2 g2a4g2  | f3e f2g2 f3e d4  | \
w:   |   | 
d4 c2d2 e2f2 e2d2  | 
w:   | 
e3d c2d2 c3a g2f2  | f2e4d2 d2c4de  | \
w:   |   | 
dcBA _1/4B2c2 _2/4B8  | 
w:   | 
d8 A8  | A2c2 B2A2 G2^3/4F2 G2A2  | G4 A2A2 A4 a4  | \
w:   |   |   | 
g3_b a2g2 f2e2 f2g2  | 
w:   | 
agfe d2e2 d2c4B2  | e2f2 {a}g2f2 e2d2 c2B2  | \
w:   |   | 
B2A2 c2BA A8  | 
w:   | 
g4 ^3/4f4 f4 d2e2  | ^3/4f2g2 ^f2^e2 d2^c2 _1/4B4  | \
w:  2. HANE  |   | 
g2^f2 g2a_1/4b agf4g2  | 
w:   | 
e6^f2 d8  | g4 ^f2e2 d4 ^c4  | d2^c2 d2e2 ^f2e2 d2c2  | \
w:   |   |   | 
=B6d2 ^c3B A4  | 
w:   | 
^c4 d4 d2e2 d2c2  | d2e2 d2^f2 e8  | \
w:   |   | 
d2e2 ^f2g2 f4 e2f2  | e2d4e2 d2c2 B2d2  | 
w:   |   | 
c4 B2g2 ^3/4f6d2  | e6d^c d2c2 d2e2  | \
w:   |   | 
^c4 d4 fedc d2e2  | d4 e4 e6d2  | 
w:   |  TESLİM  | 
e2f2 e2f2 g2a4g2  | f3e f2g2 f3e d4  | \
w:   |   | 
d4 c2d2 e2f2 e2d2  | 
w:   | 
e3d c2d2 c3a g2f2  | f2e4d2 d2c4de  | \
w:   |   | 
dcBA _1/4B2c2 _2/4B8  | 
w:   | 
d8 A8  | A2c2 B2A2 G2^3/4F2 G2A2  | G4 A2A2 A4 a4  | \
w:   |   |   | 
g3_b a2g2 f2e2 f2g2  | 
w:   | 
agfe d2e2 d2c4B2  | e2f2 {a}g2f2 e2d2 c2B2  | \
w:   |   | 
B2A2 c2BA A8  | 
w:   | 
|


